X: 100351
M: C|
L: 1/8
K: F
(ucA) !segno! |\
uG2 |\
c2cd e2ef | g2ge (.uc2.c2) | d2de f2fg | a2.af (.ud2.d2) |\
e2ee f2ff | g2gg a2aa | b2a2g2f2 | e2d2c2B2 |
c2f2 {g}(fe)fg | a2f2 {g}(fe)fg | a4 c'4 | c=Bcd c_BAG "^D.C."|]


